X: 1082
T: State and Ambition
%R: waltz, minuet
B: Henry Playford "Apollo's Banquet", London 1687 (5th Edition)
F: https://archive.org/details/apollosbanquetco01rugg
Z: 2017 John Chambers <jc:trillian.mit.edu>
M: 3/4
L: 1/8
K: Gm
% - - - - - - - - - -
[|\
B2d2(cB) | c2A2A(B/c/) |\
B3AG2 | A2^F2(ED) |\
B2d2(cB) | c2e2(dc) |\
d3g^f2 | g6 |\
B2d2(cB) | c2A2A(B/c/) |
B3AG2 | A2^F2(ED) |\
B2d2(cB) | c2e2(dc) |\
d3g^f2 | g6 |]|\
f2a2(gf) | f4ed |\
c3Bc2 | d2f2(dc) |\
g2b2(_ag) |
g4a2 |\
f3=ed2 | d4c2 |\
(de)f2d2 | d2B2d2 |\
e2A3G | ^F3GA2 |\
(Bc)(dB)e2 | c2d4 |\
B3(AG2) | HG4 |]
% - - - - - - - - - -

%%sep 1 1 500
%%sep 1 1 500

